X:18
M:6/8
L:1/8
K:B_
[B,3D3G3] [B,2D2G2]:|
|:B|B,2B B2A|B2B ~B2c|d2f c2A|B2A G2g|1f2e d2c|B2F D2F|D2 ^C D2 ^F|

